X: 30610
T: One That Got Away, The
R: jig
M: 6/8
K: Dmajor
|AFD BGE|ded AFA|AFA dAF|BGE EFG|
AFD BGE|ded AFA|GFG EAG|FDD D3|
AFD BGE|ded AFA|A (3.F.G.A dAF|BGE EFG|
AFD BGE|ded AFA|~G3 EAG|FDD D3||
dcd .e.c.A|Bcd AFA|AFA dAF|BGEE2 A|
dcd .e.c.A|Bcd AFA|GFG EAG|FDD D3|
d (3.f.g.d .e.c.A|Bcd A2|AFA dAF|BGEE2 F|
AFD BGE|ded AFA|G2G EAG|FDD D3||

